public/assets/logo-ameryka.svg

<?xml version="1.0" encoding="UTF-8" standalone="no"?>
<svg
   xmlns:dc="http://purl.org/dc/elements/1.1/"
   xmlns:cc="http://creativecommons.org/ns#"
   xmlns:rdf="http://www.w3.org/1999/02/22-rdf-syntax-ns#"
   xmlns:svg="http://www.w3.org/2000/svg"
   xmlns="http://www.w3.org/2000/svg"
   viewBox="0 0 706.66669 266.66666"
   height="266.66666"
   width="706.66669"
   xml:space="preserve"
   id="svg2"
   version="1.1"><metadata
     id="metadata8"><rdf:RDF><cc:Work
         rdf:about=""><dc:format>image/svg+xml</dc:format><dc:type
           rdf:resource="http://purl.org/dc/dcmitype/StillImage" /></cc:Work></rdf:RDF></metadata><defs
     id="defs6" /><g
     transform="matrix(1.3333333,0,0,-1.3333333,0,266.66667)"
     id="g10"><g
       transform="scale(0.1)"
       id="g12"><path
         id="path14"
         style="fill:#00a650;fill-opacity:1;fill-rule:evenodd;stroke:none"
         d="M 625.051,1126.43 549.844,757.176 H 697 L 621.211,1126.43 Z M 369.527,1407.35 H 975.988 V 1112.23 H 890.043 L 1064.1,462.172 h 69.65 V 179.555 H 692.516 l -2.317,282.617 h 79.692 L 736.109,605.895 H 512.262 L 474.645,462.172 h 74.492 V 179.555 H 217.535 v 282.617 h 66.184 l 164.836,650.058 h -79.028 v 295.12" /><path
         id="path16"
         style="fill:none;stroke:#00a650;stroke-width:2.16000009;stroke-linecap:butt;stroke-linejoin:miter;stroke-miterlimit:22.92560005;stroke-dasharray:none;stroke-opacity:1"
         d="M 625.051,1126.43 549.844,757.176 H 697 L 621.211,1126.43 Z M 369.527,1407.35 H 975.988 V 1112.23 H 890.043 L 1064.1,462.172 h 69.65 V 179.555 H 692.516 l -2.317,282.617 h 79.692 L 736.109,605.895 H 512.262 L 474.645,462.172 h 74.492 V 179.555 H 217.535 v 282.617 h 66.184 l 164.836,650.058 h -79.028 z" /><path
         id="path18"
         style="fill:#00a650;fill-opacity:1;fill-rule:evenodd;stroke:none"
         d="m 4569.63,1126.43 -75.2,-369.254 h 147.16 l -75.8,369.254 z m -255.52,280.92 h 606.46 v -295.12 h -85.94 l 174.05,-650.058 h 69.65 V 179.555 H 4637.1 l -2.31,282.617 h 79.68 l -33.78,143.723 h -223.85 l -37.61,-143.723 h 74.49 V 179.555 h -331.6 v 282.617 h 66.18 l 164.84,650.058 h -79.03 v 295.12" /><path
         id="path20"
         style="fill:none;stroke:#00a650;stroke-width:2.16000009;stroke-linecap:butt;stroke-linejoin:miter;stroke-miterlimit:22.92560005;stroke-dasharray:none;stroke-opacity:1"
         d="m 4569.63,1126.43 -75.2,-369.254 h 147.16 l -75.8,369.254 z m -255.52,280.92 h 606.46 v -295.12 h -85.94 l 174.05,-650.058 h 69.65 V 179.555 H 4637.1 l -2.31,282.617 h 79.68 l -33.78,143.723 h -223.85 l -37.61,-143.723 h 74.49 V 179.555 h -331.6 v 282.617 h 66.18 l 164.84,650.058 h -79.03 z" /><path
         id="path22"
         style="fill:#00a650;fill-opacity:1;fill-rule:evenodd;stroke:none"
         d="m 1782.63,179.832 h -198.11 v 136.574 h 30.5 l -4,311.457 -112.4,-448.484 h -57.72 l -121.46,447.57 V 316.406 h 30.85 V 179.832 h -148.48 v 136.574 h 30.5 v 288.578 h -30.5 v 152.059 h 209.96 l 80.98,-222.055 79.92,222.055 h 209.96 V 604.984 h -30.51 V 316.406 h 30.51 V 179.832" /><path
         id="path24"
         style="fill:none;stroke:#00a650;stroke-width:2.16000009;stroke-linecap:butt;stroke-linejoin:miter;stroke-miterlimit:22.92560005;stroke-dasharray:none;stroke-opacity:1"
         d="m 1782.63,179.832 h -198.11 v 136.574 h 30.5 l -4,311.457 -112.4,-448.484 h -57.72 l -121.46,447.57 V 316.406 h 30.85 V 179.832 h -148.48 v 136.574 h 30.5 v 288.578 h -30.5 v 152.059 h 209.96 l 80.98,-222.055 79.92,222.055 h 209.96 V 604.984 h -30.51 V 316.406 h 30.51 z" /><path
         id="path26"
         style="fill:#00a650;fill-opacity:1;fill-rule:evenodd;stroke:none"
         d="M 2237.07,179.379 H 1872.71 V 317.84 h 34.21 v 287.332 h -34.21 v 152.285 h 364.36 V 564.449 h -97.69 v 40.723 h -79.56 v -71.867 h 62.61 V 403.793 h -62.61 V 317.84 h 81.13 v 42.351 h 96.12 V 179.379" /><path
         id="path28"
         style="fill:none;stroke:#00a650;stroke-width:2.16000009;stroke-linecap:butt;stroke-linejoin:miter;stroke-miterlimit:22.92560005;stroke-dasharray:none;stroke-opacity:1"
         d="M 2237.07,179.379 H 1872.71 V 317.84 h 34.21 v 287.332 h -34.21 v 152.285 h 364.36 V 564.449 h -97.69 v 40.723 h -79.56 v -71.867 h 62.61 V 403.793 h -62.61 V 317.84 h 81.13 v 42.351 h 96.12 z" /><path
         id="path30"
         style="fill:#00a650;fill-opacity:1;fill-rule:evenodd;stroke:none"
         d="m 3574.78,607.188 h -31.65 L 3441.82,408.656 v -94.574 h 33.2 V 179.824 h -232.27 v 134.258 l 52.36,1.902 v 90.77 l -116.46,198.531 h -32.43 v 152.172 h 215.39 V 605.285 h -29.47 l 49.97,-87.219 60.71,87.219 h -28.69 v 152.172 h 160.65 V 607.188" /><path
         id="path32"
         style="fill:none;stroke:#00a650;stroke-width:2.16000009;stroke-linecap:butt;stroke-linejoin:miter;stroke-miterlimit:22.92560005;stroke-dasharray:none;stroke-opacity:1"
         d="m 3574.78,607.188 h -31.65 L 3441.82,408.656 v -94.574 h 33.2 V 179.824 h -232.27 v 134.258 l 52.36,1.902 v 90.77 l -116.46,198.531 h -32.43 v 152.172 h 215.39 V 605.285 h -29.47 l 49.97,-87.219 60.71,87.219 h -28.69 v 152.172 h 160.65 z" /><path
         id="path34"
         style="fill:#00a650;fill-opacity:1;fill-rule:evenodd;stroke:none"
         d="m 4092.17,181.184 h -218.6 v 142.269 h 23.9 l -86.79,143.531 V 323.453 h 31.62 V 181.184 h -219.81 v 142.269 h 31.26 v 282.192 h -31.26 v 151.808 h 216.55 V 605.645 h -28.36 v -97.723 l 98.75,99.914 -24.48,-2.191 V 757.453 H 4076.9 V 605.645 h -25.56 l -79.1,-88.641 95.09,-193.551 h 24.84 V 181.184" /><path
         id="path36"
         style="fill:none;stroke:#00a650;stroke-width:2.16000009;stroke-linecap:butt;stroke-linejoin:miter;stroke-miterlimit:22.92560005;stroke-dasharray:none;stroke-opacity:1"
         d="m 4092.17,181.184 h -218.6 v 142.269 h 23.9 l -86.79,143.531 V 323.453 h 31.62 V 181.184 h -219.81 v 142.269 h 31.26 v 282.192 h -31.26 v 151.808 h 216.55 V 605.645 h -28.36 v -97.723 l 98.75,99.914 -24.48,-2.191 V 757.453 H 4076.9 V 605.645 h -25.56 l -79.1,-88.641 95.09,-193.551 h 24.84 z" /><path
         id="path38"
         style="fill:#00a650;fill-opacity:1;fill-rule:evenodd;stroke:none"
         d="M 8.23828,8.94531 H 5290.4183 v 109.012 H 8.23828 Z" /><path
         id="path40"
         style="fill:none;stroke:#00a650;stroke-width:2.16000009;stroke-linecap:butt;stroke-linejoin:miter;stroke-miterlimit:22.92560005;stroke-dasharray:none;stroke-opacity:1"
         d="M 8.23828,8.94531 H 5290.4183 v 109.012 H 8.23828 Z" /><path
         id="path42"
         style="fill:#ed1c24;fill-opacity:1;fill-rule:evenodd;stroke:none"
         d="m 5287.88,1111.98 -677.47,883.15 -293.92,-384.99 H 2842.25 L 2683.07,1770.38 2520.86,1608.95 973.93,1610.14 681.762,1991.49 8.01563,1112.2 H 136.02 l 545.742,709.43 316.355,-414.7 h 131.923 l -74.65,96.77 h 1359.64 l -94.86,-97.53 h 144.71 l 218.19,217.51 221.01,-217.79 h 144.87 l -98.77,97.81 h 1287.2 l -74.06,-97.38 128.02,0.01 322.2,425.34 550.22,-719.95 124.12,0.26" /><path
         id="path44"
         style="fill:none;stroke:#ff0000;stroke-width:2.16000009;stroke-linecap:butt;stroke-linejoin:miter;stroke-miterlimit:22.92560005;stroke-dasharray:none;stroke-opacity:1"
         d="m 5287.88,1111.98 -677.47,883.15 -293.92,-384.99 H 2842.25 L 2683.07,1770.38 2520.86,1608.95 973.93,1610.14 681.762,1991.49 8.01563,1112.2 H 136.02 l 545.742,709.43 316.355,-414.7 h 131.923 l -74.65,96.77 h 1359.64 l -94.86,-97.53 h 144.71 l 218.19,217.51 221.01,-217.79 h 144.87 l -98.77,97.81 h 1287.2 l -74.06,-97.38 128.02,0.01 322.2,425.34 550.22,-719.95 z" /><path
         id="path46"
         style="fill:#ed1c24;fill-opacity:1;fill-rule:evenodd;stroke:none"
         d="m 2290.71,1286.42 h 488.91 c 60.31,0 116.39,-8.83 167.78,-26.23 51.39,-17.4 97.19,-36.65 120.63,-71.53 103.35,-153.72 138.01,-335.922 -19.09,-512.008 25.75,-82.925 66.68,-205.918 92.58,-205.918 h 55 V 179.957 h -111.07 c -58.18,0 -175.15,-7.644 -206.09,32.426 -65.2,84.43 -119.94,374.457 -136.91,374.457 h -59.98 V 471.305 l 48.71,0.004 V 179.957 h -437.91 v 291.051 h 63.63 v 523.871 h -66.19 v 291.541" /><path
         id="path48"
         style="fill:none;stroke:#ed1c24;stroke-width:2.16000009;stroke-linecap:butt;stroke-linejoin:miter;stroke-miterlimit:22.92560005;stroke-dasharray:none;stroke-opacity:1"
         d="m 2290.71,1286.42 h 488.91 c 60.31,0 116.39,-8.83 167.78,-26.23 51.39,-17.4 97.19,-36.65 120.63,-71.53 103.35,-153.72 138.01,-335.922 -19.09,-512.008 25.75,-82.925 66.68,-205.918 92.58,-205.918 h 55 V 179.957 h -111.07 c -58.18,0 -175.15,-7.644 -206.09,32.426 -65.2,84.43 -119.94,374.457 -136.91,374.457 h -59.98 V 471.305 l 48.71,0.004 V 179.957 h -437.91 v 291.051 h 63.63 v 523.871 h -66.19 z" /><path
         id="path50"
         style="fill:#ffffff;fill-opacity:1;fill-rule:evenodd;stroke:none"
         d="m 2375.57,1201.16 h 396.48 c 48.92,0 94.39,-7.5 136.07,-22.3 41.68,-14.8 78.81,-31.16 97.83,-60.82 83.81,-130.677 88.85,-281.743 -38.56,-431.446 20.89,-70.504 86.13,-301.989 107.14,-301.989 h 35.61 V 260.742 h -90.07 c -47.18,0 -54.47,-4.097 -79.56,29.961 -52.87,71.766 -122,379.688 -144.72,379.414 L 2599.8,667.723 V 384.086 h 56.54 V 260.742 h -278.7 v 123.281 h 51.6 v 695.157 h -53.67 v 121.98" /><path
         id="path52"
         style="fill:none;stroke:#ed1c24;stroke-width:2.16000009;stroke-linecap:butt;stroke-linejoin:miter;stroke-miterlimit:22.92560005;stroke-dasharray:none;stroke-opacity:1"
         d="m 2375.57,1201.16 h 396.48 c 48.92,0 94.39,-7.5 136.07,-22.3 41.68,-14.8 78.81,-31.16 97.83,-60.82 83.81,-130.677 88.85,-281.743 -38.56,-431.446 20.89,-70.504 86.13,-301.989 107.14,-301.989 h 35.61 V 260.742 h -90.07 c -47.18,0 -54.47,-4.097 -79.56,29.961 -52.87,71.766 -122,379.688 -144.72,379.414 L 2599.8,667.723 V 384.086 h 56.54 V 260.742 h -278.7 v 123.281 h 51.6 v 695.157 h -53.67 z" /><path
         id="path54"
         style="fill:#ed1c24;fill-opacity:1;fill-rule:evenodd;stroke:none"
         d="M 2600.52,1112.08 V 757.898 h 133.83 c 59.44,0 101.11,9.942 125.84,29.426 24.58,19.356 37.31,52.074 37.31,97.719 v 112.82 c 0,57.337 -44.29,114.217 -131.53,114.217 h -165.45" /><path
         id="path56"
         style="fill:none;stroke:#ed1c24;stroke-width:2.16000009;stroke-linecap:butt;stroke-linejoin:miter;stroke-miterlimit:22.92560005;stroke-dasharray:none;stroke-opacity:1"
         d="M 2600.52,1112.08 V 757.898 h 133.83 c 59.44,0 101.11,9.942 125.84,29.426 24.58,19.356 37.31,52.074 37.31,97.719 v 112.82 c 0,57.337 -44.29,114.217 -131.53,114.217 z" /><path
         id="path58"
         style="fill:#ffffff;fill-opacity:1;fill-rule:evenodd;stroke:none"
         d="M 2683.11,1023.68 V 840.813 h 57.7 c 26.12,0 44.42,4.839 55.3,14.3 10.79,9.407 16.39,25.313 16.39,47.489 v 65.574 c 0,27.859 -19.46,55.504 -57.79,55.504 h -71.6" /><path
         id="path60"
         style="fill:none;stroke:#ed1c24;stroke-width:2.16000009;stroke-linecap:butt;stroke-linejoin:miter;stroke-miterlimit:22.92560005;stroke-dasharray:none;stroke-opacity:1"
         d="M 2683.11,1023.68 V 840.813 h 57.7 c 26.12,0 44.42,4.839 55.3,14.3 10.79,9.407 16.39,25.313 16.39,47.489 v 65.574 c 0,27.859 -19.46,55.504 -57.79,55.504 z" /></g></g></svg>

<?xml version="1.0" encoding="UTF-8" standalone="no"?>
<!DOCTYPE svg PUBLIC "-//W3C//DTD SVG 1.1//EN" "http://www.w3.org/Graphics/SVG/1.1/DTD/svg11.dtd">
<svg width="100%" height="100%" viewBox="0 0 707 267" version="1.1" xmlns="http://www.w3.org/2000/svg" xmlns:xlink="http://www.w3.org/1999/xlink" xml:space="preserve" xmlns:serif="http://www.serif.com/" style="fill-rule:evenodd;clip-rule:evenodd;stroke-linejoin:round;stroke-miterlimit:2;">
    <g id="g12" transform="matrix(0.133333,0,0,-0.133333,0,266.667)">
        <path id="path14" d="M625.051,1126.43L549.844,757.176L697,757.176L621.211,1126.43L625.051,1126.43ZM369.527,1407.35L975.988,1407.35L975.988,1112.23L890.043,1112.23L1064.1,462.172L1133.75,462.172L1133.75,179.555L692.516,179.555L690.199,462.172L769.891,462.172L736.109,605.895L512.262,605.895L474.645,462.172L549.137,462.172L549.137,179.555L217.535,179.555L217.535,462.172L283.719,462.172L448.555,1112.23L369.527,1112.23L369.527,1407.35" style="fill:rgb(0,136,91);"/>
        <path id="path18" d="M4569.63,1126.43L4494.43,757.176L4641.59,757.176L4565.79,1126.43L4569.63,1126.43ZM4314.11,1407.35L4920.57,1407.35L4920.57,1112.23L4834.63,1112.23L5008.68,462.172L5078.33,462.172L5078.33,179.555L4637.1,179.555L4634.79,462.172L4714.47,462.172L4680.69,605.895L4456.84,605.895L4419.23,462.172L4493.72,462.172L4493.72,179.555L4162.12,179.555L4162.12,462.172L4228.3,462.172L4393.14,1112.23L4314.11,1112.23L4314.11,1407.35" style="fill:rgb(0,136,91);"/>
        <path id="path22" d="M1782.63,179.832L1584.52,179.832L1584.52,316.406L1615.02,316.406L1611.02,627.863L1498.62,179.379L1440.9,179.379L1319.44,626.949L1319.44,316.406L1350.29,316.406L1350.29,179.832L1201.81,179.832L1201.81,316.406L1232.31,316.406L1232.31,604.984L1201.81,604.984L1201.81,757.043L1411.77,757.043L1492.75,534.988L1572.67,757.043L1782.63,757.043L1782.63,604.984L1752.12,604.984L1752.12,316.406L1782.63,316.406L1782.63,179.832" style="fill:rgb(0,136,91);"/>
        <path id="path26" d="M2237.07,179.379L1872.71,179.379L1872.71,317.84L1906.92,317.84L1906.92,605.172L1872.71,605.172L1872.71,757.457L2237.07,757.457L2237.07,564.449L2139.38,564.449L2139.38,605.172L2059.82,605.172L2059.82,533.305L2122.43,533.305L2122.43,403.793L2059.82,403.793L2059.82,317.84L2140.95,317.84L2140.95,360.191L2237.07,360.191L2237.07,179.379" style="fill:rgb(0,136,91);"/>
        <path id="path30" d="M3574.78,607.188L3543.13,607.188L3441.82,408.656L3441.82,314.082L3475.02,314.082L3475.02,179.824L3242.75,179.824L3242.75,314.082L3295.11,315.984L3295.11,406.754L3178.65,605.285L3146.22,605.285L3146.22,757.457L3361.61,757.457L3361.61,605.285L3332.14,605.285L3382.11,518.066L3442.82,605.285L3414.13,605.285L3414.13,757.457L3574.78,757.457L3574.78,607.188" style="fill:rgb(0,136,91);"/>
        <path id="path34" d="M4092.17,181.184L3873.57,181.184L3873.57,323.453L3897.47,323.453L3810.68,466.984L3810.68,323.453L3842.3,323.453L3842.3,181.184L3622.49,181.184L3622.49,323.453L3653.75,323.453L3653.75,605.645L3622.49,605.645L3622.49,757.453L3839.04,757.453L3839.04,605.645L3810.68,605.645L3810.68,507.922L3909.43,607.836L3884.95,605.645L3884.95,757.453L4076.9,757.453L4076.9,605.645L4051.34,605.645L3972.24,517.004L4067.33,323.453L4092.17,323.453L4092.17,181.184" style="fill:rgb(0,136,91);"/>
        <rect id="path38" x="8.238" y="8.945" width="5282.18" height="109.012" style="fill:rgb(0,136,91);"/>
        <path id="path44" d="M5287.88,1111.98L4610.41,1995.13L4316.49,1610.14L2842.25,1610.14L2683.07,1770.38L2520.86,1608.95L973.93,1610.14L681.762,1991.49L8.016,1112.2L136.02,1112.2L681.762,1821.63L998.117,1406.93L1130.04,1406.93L1055.39,1503.7L2415.03,1503.7L2320.17,1406.17L2464.88,1406.17L2683.07,1623.68L2904.08,1405.89L3048.95,1405.89L2950.18,1503.7L4237.38,1503.7L4163.32,1406.32L4291.34,1406.33L4613.54,1831.67L5163.76,1111.72L5287.88,1111.98Z" style="fill:rgb(210,7,56);fill-rule:nonzero;"/>
        <path id="path46" d="M2290.71,1286.42L2779.62,1286.42C2839.93,1286.42 2896.01,1277.59 2947.4,1260.19C2998.79,1242.79 3044.59,1223.54 3068.03,1188.66C3171.38,1034.94 3206.04,852.738 3048.94,676.652C3074.69,593.727 3115.62,470.734 3141.52,470.734L3196.52,470.734L3196.52,179.957L3085.45,179.957C3027.27,179.957 2910.3,172.313 2879.36,212.383C2814.16,296.813 2759.42,586.84 2742.45,586.84L2682.47,586.84L2682.47,471.305L2731.18,471.309L2731.18,179.957L2293.27,179.957L2293.27,471.008L2356.9,471.008L2356.9,994.879L2290.71,994.879L2290.71,1286.42" style="fill:rgb(210,7,56);"/>
        <path id="path50" d="M2375.57,1201.16L2772.05,1201.16C2820.97,1201.16 2866.44,1193.66 2908.12,1178.86C2949.8,1164.06 2986.93,1147.7 3005.95,1118.04C3089.76,987.363 3094.8,836.297 2967.39,686.594C2988.28,616.09 3053.52,384.605 3074.53,384.605L3110.14,384.605L3110.14,260.742L3020.07,260.742C2972.89,260.742 2965.6,256.645 2940.51,290.703C2887.64,362.469 2818.51,670.391 2795.79,670.117L2599.8,667.723L2599.8,384.086L2656.34,384.086L2656.34,260.742L2377.64,260.742L2377.64,384.023L2429.24,384.023L2429.24,1079.18L2375.57,1079.18L2375.57,1201.16" style="fill:white;"/>
        <path id="path54" d="M2600.52,1112.08L2600.52,757.898L2734.35,757.898C2793.79,757.898 2835.46,767.84 2860.19,787.324C2884.77,806.68 2897.5,839.398 2897.5,885.043L2897.5,997.863C2897.5,1055.2 2853.21,1112.08 2765.97,1112.08L2600.52,1112.08" style="fill:rgb(210,7,56);"/>
        <path id="path58" d="M2683.11,1023.68L2683.11,840.813L2740.81,840.813C2766.93,840.813 2785.23,845.652 2796.11,855.113C2806.9,864.52 2812.5,880.426 2812.5,902.602L2812.5,968.176C2812.5,996.035 2793.04,1023.68 2754.71,1023.68L2683.11,1023.68" style="fill:white;"/>
    </g>
</svg>
